suite-common/icons/assets/icons/chevronUp.svg

<svg xmlns="http://www.w3.org/2000/svg" xml:space="preserve" fill="none" viewBox="0 0 24 24">
  <path fill="#000" fill-rule="evenodd" d="M11.68 6.823c-.149.064-7.595 7.471-7.784 7.744a.756.756 0 0 0 .279 1.101c.163.084.492.081.666-.006.076-.039 1.718-1.648 3.649-3.576L12 8.581l3.51 3.505c1.931 1.928 3.573 3.537 3.649 3.576.174.087.503.09.666.006a.756.756 0 0 0 .279-1.101c-.056-.081-1.799-1.843-3.873-3.915-2.65-2.649-3.815-3.787-3.92-3.83a.88.88 0 0 0-.631.001"/>
</svg>

<svg xmlns="http://www.w3.org/2000/svg" xml:space="preserve" fill="none" viewBox="0 0 24 24"><path d="M11.680 6.823 C 11.531 6.887,4.085 14.294,3.896 14.567 C 3.637 14.939,3.768 15.457,4.175 15.668 C 4.338 15.752,4.667 15.749,4.841 15.662 C 4.917 15.623,6.559 14.014,8.490 12.086 L 12.000 8.581 15.510 12.086 C 17.441 14.014,19.083 15.623,19.159 15.662 C 19.333 15.749,19.662 15.752,19.825 15.668 C 20.232 15.457,20.363 14.939,20.104 14.567 C 20.048 14.486,18.305 12.724,16.231 10.652 C 13.581 8.003,12.416 6.865,12.311 6.822 C 12.125 6.744,11.862 6.745,11.680 6.823 " stroke="none" fill-rule="evenodd" fill="black"></path></svg>
